X:295
T:Dublin City (Spanish Lady)
C:Traditional Irish
M:2/2
R:Polka
L:1/8
S:Colin Hume's website,  colinhume.com  - chords can also be printed below the stave.
Q:1/2=120
K:A
E2 | "A"E2E2 E2F2 | "F#m"A2A2 ABc2 | "D"d2B2 "A"c2A2 | "E7"F2E2 E4 |\
"A"E2E2 E2F2 | "F#m"A2A2 ABc2 | "D"d2B2 "A"c2A2 | "E7"F2E2 E4 |
"A"c2e2 e2c2 | "D"B2A2 A2B2 | "A"c2e2 e2c2 | "D"B2A2 "E7"B3E |\
"A"c2e2 e2c2 | "F#m"B2A2 A2Bc | "D"d2B2 "A"c2A2 | "E7"F2E2 E4 |

